!!!OTL: Sleepie Bodie
!!!id: HA044
**kern
*clefF4
*k[b-]
*F:
*M6/8
{8f
=1
4a
8cc
8a
8ff
8dd
=2
8.cc
16b-
8a
8.g}
{16a
8b-
=3
8.a
16b-
8cc
8a
8ff
8dd
=4
4.cc
4f}
{8f
=5
8a
8b-
8cc
8a
8ff
8dd
=6
8.cc
16b-
8a
4g}
{8b-
=7
8.a
16b-
8cc
8a
8ff
8dd
=8
4.cc
4f}
{16dd
16ee
=9
8ff
8ee
8dd
8cc
8b-
8a
=10
8b-
8cc
8a
4g}
{16dd
16ee
=11
8.ff
16ee
8dd
8cc
8a
8cc
=12
4.ff
4cc}
{16dd
16ee
=13
8ff
8ee
8dd
8cc
8b-
8a
=14
8.b-
16cc
8a
4g}
{8b-
=15
8.a
16b-
8cc
8a
8ff
8dd
=16
4.cc
4f}
==
*-
!!!minrhy: 16
!!!meter: 6/8  
!!!cut: Sleepie Bodie
!!!key: HA044  16  F 6/8  
!!!fog: a--b--av-bv-c--cw-cv-bv-
!! Haydn: Volksliedbearbeitungen, Bd1
